apps/app.mento.org/public/tokens/cJPY.svg

<svg width="40" height="40" viewBox="0 0 40 40" fill="none" xmlns="http://www.w3.org/2000/svg">
<g clip-path="url(#clip0_4059_20106)">
<path d="M20 40.0001C31.0458 40.0001 40.0001 31.0458 40.0001 20C40.0001 8.95433 31.0458 0 20 0C8.95433 0 0 8.95433 0 20C0 31.0458 8.95433 40.0001 20 40.0001Z" fill="#FF5FFA"/>
<path d="M19.6257 30.604C15.1665 30.604 11.5217 26.96 11.5217 22.5C11.5217 19.3352 13.3441 16.5536 16.0289 15.2592V12.3344C11.8569 13.8208 8.83606 17.8008 8.83606 22.5C8.83606 28.4464 13.6793 33.2896 19.6257 33.2896C24.3249 33.2896 28.3049 30.2688 29.7913 26.0968H26.8665C25.5721 28.7824 22.7905 30.604 19.6257 30.604Z" fill="#070010"/>
<path d="M22.1397 6.74985L25.9678 15.3749L24.21 16.3671L19.5459 6.74985H22.1397ZM24.749 15.3514L28.5615 6.74985H31.1553L26.4912 16.3671L24.749 15.3514ZM26.5381 14.3358V22.7499H24.1318V14.3358H26.5381ZM29.9287 14.6874V16.2655H20.6631V14.6874H29.9287ZM29.9287 17.7811V19.3593H20.6631V17.7811H29.9287Z" fill="#070010"/>
</g>
<defs>
<clipPath id="clip0_4059_20106">
<rect width="40" height="40" fill="white"/>
</clipPath>
</defs>
</svg>

<svg xmlns="http://www.w3.org/2000/svg" width="40" height="40" fill="none" viewBox="0 0 40 40"><g clip-path="url(#a)"><path fill="#FF5FFA" d="M20 40c11.046 0 20-8.954 20-20S31.046 0 20 0 0 8.954 0 20s8.954 20 20 20"/><path fill="#070010" d="M19.626 30.604c-4.46 0-8.104-3.644-8.104-8.104 0-3.165 1.822-5.946 4.507-7.24v-2.926c-4.172 1.487-7.193 5.467-7.193 10.166 0 5.946 4.843 10.79 10.79 10.79 4.699 0 8.679-3.021 10.165-7.193h-2.925c-1.294 2.685-4.075 4.507-7.24 4.507"/><path fill="#070010" d="m22.14 6.75 3.828 8.625-1.758.992-4.664-9.617zm2.609 8.601 3.813-8.601h2.593l-4.664 9.617zm1.79-1.015v8.414h-2.407v-8.414zm3.39.351v1.579h-9.266v-1.579zm0 3.094v1.578h-9.266v-1.578z"/></g><defs><clipPath id="a"><path fill="#fff" d="M0 0h40v40H0z"/></clipPath></defs></svg>
